svg/fluentui-system-icons/ic_fluent_checkmark_circle_20_filled.svg

<svg width="20" height="20" viewBox="0 0 20 20" fill="none" xmlns="http://www.w3.org/2000/svg">
<path d="M10 2C14.4183 2 18 5.58172 18 10C18 14.4183 14.4183 18 10 18C5.58172 18 2 14.4183 2 10C2 5.58172 5.58172 2 10 2ZM13.3584 7.64645C13.1849 7.47288 12.9154 7.4536 12.7206 7.58859L12.6513 7.64645L9 11.298L7.35355 9.65131L7.28431 9.59346C7.08944 9.45846 6.82001 9.47775 6.64645 9.65131C6.47288 9.82488 6.4536 10.0943 6.58859 10.2892L6.64645 10.3584L8.64645 12.3584L8.71569 12.4163C8.8862 12.5344 9.1138 12.5344 9.28431 12.4163L9.35355 12.3584L13.3584 8.35355L13.4163 8.28431C13.5513 8.08944 13.532 7.82001 13.3584 7.64645Z" fill="#212121"/>
</svg>

<svg xmlns="http://www.w3.org/2000/svg" width="20" height="20"><path d="M10 2a8 8 0 1 1 0 16 8 8 0 0 1 0-16Zm3.358 5.646a.5.5 0 0 0-.637-.057l-.07.057L9 11.298 7.354 9.651l-.07-.058a.5.5 0 0 0-.695.696l.057.07 2 2 .07.057a.5.5 0 0 0 .568 0l.07-.058 4.004-4.004.058-.07a.5.5 0 0 0-.058-.638Z"/></svg>
